X:1
T:Étude Op. 25 No. 3 in F major
T:Étude Op. 25 No. 3 in F major
T:"The Horseman"
T:Frédéric Chopin
C:Frédéric Chopin
%%score { ( 1 3 5 ) | ( 2 4 ) }
L:1/8
Q:1/4=100
M:3/4
K:F
V:1 treble nm="鋼琴" snm="Pno."
V:3 treble 
V:5 treble 
V:2 bass 
V:4 bass 
V:1
"^Allegro""_leggiero"!mf! c2 |[Q:1/4=144] d<c G<F d<c | d<c A<G d<c | d<c d<c a<g | %4
 d<c a<g!8va(! a'<g'[Q:1/4=86]!8va)! |[Q:1/4=144] d<c G<F d<c | d<c A<G d<c | d<c e<d d<c | %8
 d<c!8va(! d'<c' d''<c''[Q:1/4=86]!8va)! |[Q:1/4=144] Ff Cc Ff | Gg Cc Gg | Aa Ff dd' | %12
 Gg cc'!8va(! c'[Q:1/4=86]c''!8va)! |[Q:1/4=144] Ff Cc Ff | Gg Cc Gg | Aa Aa Gg | %16
 Ff!8va(! ff' f'[Q:1/4=86]f''!8va)! |[Q:1/4=144]!<(! d<c d<c d<c!<)! | c<B c<B c<B | %19
!mf! c<!<(!B c<B c<B!<)! |!f! B<_A B<A B<A |!f!!<(! B<_A B<A B<A!<)! |!ff! _A<G!>(! A<G A<G!>)! | %23
!p!!<(! _B<_A b<_a b<a!<)! |!f! _a<g!>(! a<g a<g!>)! |!p! g<^f!<(! G<^F G<F!<)! | %26
!f! G<^F!>(! G<F G<F!>)! |!p! G<^F G<F"_riten."[Q:1/4=140] G<F | %28
[Q:1/4=134] G<^F[Q:1/4=126] G<F[Q:1/4=116] ^G<F ||[K:B][Q:1/4=144]"^a tempo"!f! G<F C<B, G<F | %30
 G<F D<C G<F | G<F G<F d<c | G<F d<c d'<c'[Q:1/4=86] |[Q:1/4=144] G<F C<B, G<F | G<F D<C G<F | %35
 G<F A<G G<F | G<F g<f!8va(! g'<f'[Q:1/4=86]!8va)! |[Q:1/4=144]!<(! G<F G<F G<F | %38
 =A<G!<)!!ff!!>(! F<E F<E!>)! |!f!!<(! F<E F<E F<E | =G<F!<)!!ff!!>(! E<^D E<D!>)! | %41
!p! =D<C =d<c d<c |!f!!>(! =d<c d<c d<c!>)! |!p!!<(! =d<c!8va(! =d'<c' d'<c'!<)! | %44
!f!!>(! =d'<c' d'<c' d'<c'!>)!!8va)! ||[K:F]!p!!8va(! _d'<c'!8va)! _d<c d<c | _d<c d<c d<c | %47
 =d<c d<c"_riten."[Q:1/4=140] d<c |[Q:1/4=134] d<c[Q:1/4=126] d<c[Q:1/4=116] d<c | %49
[Q:1/4=144]!f! F!wedge!f C!wedge!c F!wedge!f | G!wedge!g C!wedge!c G!wedge!g | %51
 A!wedge!a F!wedge!f d!wedge!d' | G!wedge!g c!wedge!c'!8va(! c'[Q:1/4=86]!wedge!c''!8va)! | %53
[Q:1/4=144] F!wedge!f C!wedge!c F!wedge!f | G!wedge!g C!wedge!c G!wedge!g | %55
 A!wedge!a A!wedge!a G!wedge!g | F!wedge!f c!wedge!c' c!wedge!c' | %57
 c!wedge!c'!8va(! c'!wedge!c'' c'!wedge!c'' | c'!wedge!c''!8va)!!p! c!>!c' c!>!c' | %59
 c!>!c'!8va(! c'!>!c'' c'!>!c'' | c'!>!c'' =b!>!=b' b!>!b' | a!wedge!a' a!wedge!a' g!wedge!g' | %62
 f!wedge!f'!8va)!!>(! =B!wedge!=b B!wedge!b | A!wedge!a A!wedge!a G!wedge!g!>)! | %64
!>(! F!wedge!f cc' c!>)!!p!"_dimin."c' | cc' cc' c!pp!c' | cc' cc' cc' | %67
[Q:1/4=120] cc'[Q:1/4=112] cc'[Q:1/4=104]!pp!"_smorz." cc' | %68
[Q:1/4=100] c[Q:1/4=96][Q:1/4=92]c'[Q:1/4=88][Q:1/4=84] c[Q:1/4=80][Q:1/4=76]c'[Q:1/4=72][Q:1/4=68] c[Q:1/4=64][Q:1/4=60]c'[Q:1/4=56] | %69
[Q:1/4=120] (T[cf]>e f/4^g/4b/4a/4 =b/4d'/4c'/4e'/4!8va(! g'/4f'/4^g'/4b'/4 a'/4=b'/4d''/4c''/4 | %70
 f''2)!8va)! z2[Q:1/4=80] ([CA]2 | [FA]6 | !fermata![FA]6) |] %73
V:2
 z2 |!ped! C,!ped-up!F,,!ped! C,!ped-up!F,,!ped! C,!ped-up!F,, | %2
!ped! C,!ped-up!F,,!ped! C,!ped-up!F,,!ped! C,!ped-up!F,, | %3
!ped! C,!ped-up!F,,!ped! D,!ped-up!F,,!ped! D,!ped-up!F,, |!ped! G,C,[K:treble] CG, GC!ped-up! | %5
[K:bass]!ped! C,!ped-up!F,,!ped! C,!ped-up!F,,!ped! C,!ped-up!F,, | %6
!ped! C,!ped-up!F,,!ped! C,!ped-up!F,,!ped! C,!ped-up!F,, | %7
!ped! C,!ped-up!F,,!ped! D,!ped-up!G,,!ped! G,!ped-up!C, |!ped! C,F,,[K:treble] CF, cF!ped-up! | %9
[K:bass]!ped! C,!ped-up!F,,!ped! C,!ped-up!F,,!ped! C,!ped-up!F,, | %10
!ped! C,!ped-up!F,,!ped! C,!ped-up!F,,!ped! C,!ped-up!F,, | %11
!ped! C,!ped-up!F,,!ped! D,!ped-up!F,,!ped! D,!ped-up!G,, | %12
!ped! G,!ped-up!C,[K:treble]!ped! C!ped-up!G,!ped! G!ped-up!C | %13
[K:bass]!ped! C,!ped-up!F,,!ped! C,!ped-up!F,,!ped! C,!ped-up!F,, | %14
!ped! C,!ped-up!F,,!ped! C,!ped-up!F,,!ped! C,!ped-up!F,, | %15
!ped! C,!ped-up!F,,!ped! D,!ped-up!G,,!ped! C,!ped-up!C,, | %16
!ped! C,!ped-up!F,,[K:treble]!ped! C!ped-up!F,!ped! c!ped-up!F | %17
[K:bass]!ped! G,C,!ped-up!!ped! G,C,!ped-up!!ped! CF,!ped-up! | %18
!ped! F,B,,!ped-up!!ped! F,B,,!ped-up!!ped! F,B,,!ped-up! | %19
!ped! F,B,,!ped-up!!ped! F,B,,!ped-up!!ped! _E,_E,,!ped-up! | %20
!ped! _E,_A,,!ped-up!!ped! E,A,, E,A,,!ped-up! |!ped! _E,G,, E,G,,!ped-up!!ped! E,G,,!ped-up! | %22
!ped! D,G,,!ped-up!!ped! D,G,, D,G,,!ped-up! | %23
!ped! _E,G,,[K:treble] _EG,!ped-up!!ped! EG,!ped-up! |!ped! DG,!ped-up!!ped! DG, DG,!ped-up! | %25
 D^F,[K:bass]!ped! D,^F,,!ped-up!!ped! D,F,,!ped-up! | %26
!ped! ^C,^F,,!ped-up!!ped! C,F,, C,F,,!ped-up! |!ped! D,^F,, D,F,,!ped-up!!ped! E,F,,!ped-up! | %28
!ped! D,^F,,!ped-up!!ped! ^C,F,,!ped-up!!ped! C,F,,!ped-up! || %29
[K:B]!ped! (D,/F,,/!ped-up!B,,,)!ped! (D,/F,,/!ped-up!B,,,)!ped! (D,/F,,/!ped-up!B,,,) | %30
!ped! (E,/F,,/!ped-up!B,,,)!ped! (E,/F,,/!ped-up!B,,,)!ped! (E,/F,,/!ped-up!B,,,) | %31
!ped! (D,/F,,/B,,,) (D,/F,,/B,,,)!ped-up!!ped! (^E,/B,,/!ped-up!C,,) | %32
!ped! C,F,, F,C,[K:treble] CF,!ped-up! | %33
[K:bass]!ped! (D,/F,,/!ped-up!B,,,)!ped! (D,/F,,/!ped-up!B,,,)!ped! (D,/F,,/!ped-up!B,,,) | %34
!ped! (E,/F,,/!ped-up!B,,,)!ped! (E,/F,,/!ped-up!B,,,)!ped! (E,/F,,/!ped-up!B,,,) | %35
!ped! (D,/F,,/B,,,) (^E,/B,,/C,,)!ped-up!!ped! (A,/=E,/!ped-up!F,,) | %36
!ped! (D,/F,,/B,,,) (D/F,/B,,)[K:treble] (d/F/B,)!ped-up! | %37
[K:bass]!ped! (A,/C,/!ped-up!F,,)!ped! (=A,/C,/!ped-up!F,,)!ped! (A,/B,,/!ped-up!F,,) | %38
!ped! (=A,/B,,/!ped-up!E,,)!ped! (G,/B,,/!ped-up!E,,)!ped! (G,/B,,/!ped-up!E,,) | %39
!ped! (=G,/B,,/!ped-up!E,,)!ped! (G,/B,,/!ped-up!E,,)!ped! (G,/=A,,/!ped-up!E,,) | %40
!ped! (=G,/=A,,/!ped-up!=D,,)!ped! (F,/A,,/!ped-up!D,,)!ped! (F,/A,,/!ped-up!D,,) | %41
!ped! (F,/=A,,/!ped-up!C,,)!ped! A,!ped-up!C,!ped! A,!ped-up!C, | %42
!ped! G,!ped-up!C,!ped! G,!ped-up!C,!ped! G,!ped-up!C, | %43
!ped! =A,!ped-up!C,[K:treble]!ped! =A!ped-up!C!ped! A!ped-up!C | %44
!ped! G!ped-up!C!ped! G!ped-up!C!ped! G!ped-up!C || %45
[K:F]!ped! _A!ped-up!C[K:bass]!ped! _A,!ped-up!C,!ped! A,!ped-up!C, | %46
!ped! G,!ped-up!C,!ped! G,!ped-up!C,!ped! G,!ped-up!C, | %47
!ped! G,!ped-up!C,!ped! G,!ped-up!C,!ped! G,!ped-up!C, | %48
!ped! G,!ped-up!C,!ped! G,!ped-up!C,!ped! G,!ped-up!C, | %49
!ped! C,!ped-up!F,,!ped! C,!ped-up!F,,!ped! C,!ped-up!F,, | %50
!ped! C,!ped-up!F,,!ped! C,!ped-up!F,,!ped! C,!ped-up!F,, | %51
!ped! C,!ped-up!F,,!ped! D,!ped-up!F,,!ped! D,!ped-up!G,, |!ped! G,C,[K:treble] CG, GC!ped-up! | %53
[K:bass]!ped! C,!ped-up!F,,!ped! C,!ped-up!F,,!ped! C,!ped-up!F,, | %54
!ped! C,!ped-up!F,,!ped! C,!ped-up!F,,!ped! C,!ped-up!F,, | %55
!ped! C,!ped-up!F,,!ped! D,!ped-up!G,,!ped! G,!ped-up!C, | %56
!ped! C,F,,[K:treble] CF,!ped-up!!ped! CF,!ped-up! |!ped! CF, cF!ped-up!!ped! cF!ped-up! | %58
!ped! cF!ped-up!!ped! CF,!ped-up!!ped! CF,!ped-up! |!ped! CF, cF!ped-up!!ped! cF!ped-up! | %60
!ped! c!wedge!F!ped-up!!ped! =B!wedge!=B,!ped-up!!ped! B!wedge!E!ped-up! | %61
!ped! A!wedge!A,!ped-up!!ped! G!wedge!B,!ped-up!!ped! G!wedge!=C!ped-up! | %62
!ped! C!wedge!F,!ped-up![K:bass]!ped! =B,!wedge!=B,,!ped-up!!ped! B,!wedge!E,!ped-up! | %63
!ped! A,!wedge!A,,!ped-up!!ped! G,!wedge!B,,!ped-up!!ped! G,!wedge!=C,!ped-up! | %64
!ped! C,F,, C,F,,!ped-up!!ped! C,F,,!ped-up! |!ped! C,F,, C,F,,!ped-up!!ped! C,F,,!ped-up! | %66
!ped! C,F,, .F,,,2 (!arpeggio![F,,C,A,]2!ped-up! | %67
!ped! !arpeggio![F,CA]2) .F,,,2 (!arpeggio![F,,C,A,]2!ped-up! | %68
!ped! !arpeggio![F,CA]2) z2 z2!ped-up! | z6 | z2 z2 ([C,,C,]2 |!ped! [F,,,F,,]6 | %72
 !fermata![F,,C,]6)!ped-up! |] %73
V:3
 x2 | Ff Cc Ff | Gg Cc Gg | Aa Ff dd' | Gg cc'!8va(! c'c''!8va)! | Ff Cc Ff | Gg Cc Gg | Aa Aa Gg | %8
 Ff!8va(! ff' f'f''!8va)! | d/4c/4d/4c/4 x G/4F/4G/4F/4 x d/4c/4d/4c/4 x | %10
 d/4c/4d/4c/4 x A/4G/4A/4G/4 x d/4c/4d/4c/4 x | d/4c/4d/4c/4 x d/4c/4d/4c/4 x a/4g/4a/4g/4 x | %12
 d/4c/4d/4c/4 x a/4g/4a/4g/4 x!8va(! a'/4g'/4a'/4g'/4 x!8va)! | %13
 d/4c/4d/4c/4 x G/4F/4G/4F/4 x d/4c/4d/4c/4 x | d/4c/4d/4c/4 x A/4G/4A/4G/4 x d/4c/4d/4c/4 x | %15
 d/4c/4d/4c/4 x e/4d/4e/4d/4 x d/4c/4d/4c/4 x | %16
 d/4c/4d/4c/4 x!8va(! d'/4c'/4d'/4c'/4 x d''/4c''/4d''/4c''/4 x!8va)! | Gg Gg A!f!a | Fb Ff Ff | %19
 Ff Ff Gg | _E_a E_e Ee | _E_e Ee Ee | _E_e Dd Dd | _E_e e_e' ef' | _e_e' dd' dd' | dd' Dd Ee | %26
 Dd ^C^c Cc | =B,=B B,B ^C^c | =B,=B ^A,^A A,A || %29
[K:B] B,!>!B[I:staff +1] (F,[I:staff -1]!>!F) B,!>!B | %30
 C!>!c[I:staff +1] (F,[I:staff -1]!>!F) C!>!c | D!>!d B,!>!B G!>!g | C!>!c F!>!f f!>!f' | %33
 B,!>!B[I:staff +1] (F,[I:staff -1]!>!F) B,!>!B | C!>!c[I:staff +1] (F,[I:staff -1]!>!F) C!>!c | %35
 D!>!d D!>!d C!>!c | B,!>!B B!>!b!8va(! b!>!b'!8va)! | Cc Cc Dd | Ee B,B B,B | B,B B,B Cc | %40
 =D=d =A,=A A,A |[I:staff +1] (=A,!<(![I:staff -1]=A) A=a Bb!<)! | =A=a Gg G!p!g | %43
 =A=a!8va(! a=a' bb' | =a=a' gg' gg'!8va)! ||[K:F]!8va(! _a_a'!8va)! _Aa Bb | _A_a Gg Gg | %47
 Ff Ff Gg | Ff Ee Ee | d/c/ x G/F/ x d/c/ x | d/c/ x A/G/ x d/c/ x | d/c/ x d/c/ x a/g/ x | %52
 d/c/ x a/g/ x!8va(! a'/g'/ x!8va)! | d/c/ x G/F/ x d/c/ x | d/c/ x A/G/ x d/c/ x | %55
 d/c/ x e/d/ x d/c/ x | d/c/ x g/f/ x a/g/ x | g/f/ x!8va(! g'/f'/ x a'/g'/ x | %58
 g'/f'/ x!8va)! g/f/ x a/g/ x | g/f/ x!8va(! g'/f'/ x a'/g'/ x | g'/f'/ x g'/^f'/ x =f'/e'/ x | %61
 f'/e'/ x e'/d'/ x d'/=c'/ x | d'/c'/ x!8va)! g/^f/ x =f/e/ x | f/e/ x e/d/ x d/=c/ x | %64
 d/c/ x g/f/ x a/g/ x | g/!>(!f/ x g/f/ x a/g/!>)! x | g/f/ x g/f/ x g/f/ x | %67
 g/4f/4g/4f/4 x g/4f/4g/4f/4 x g/4f/4g/4f/4 x | %68
 g/4f/4g/4f/4 g/4f/4g/4f/4 g/4f/4g/4f/4 g/4f/4g/4f/4 g/4f/4g/4f/4 g/4f/4g/4f/4 | x4!8va(! x2 | %70
 x2!8va)! x2[I:staff +1] !stemless!A,2 | !stemless!A,6 | !stemless!A,6 |] %73
V:4
 x2 | A,/F,/ x A,/F,/ x A,/F,/ x | B,/E,/ x B,/E,/ x B,/E,/ x | A,/F,/ x A,/F,/ x =B,/F,/ x | %4
 E/_B,/ x[K:treble] B/E/ x e/B/ x |[K:bass] A,/F,/ x A,/F,/ x A,/F,/ x | %6
 B,/E,/ x B,/E,/ x B,/E,/ x | A,/F,/ x =B,/F,/ x E/_B,/ x | A,/F,/ x[K:treble] A/F/ x a/f/ x | %9
[K:bass] A,/F,/ x A,/F,/ x A,/F,/ x | B,/E,/ x B,/E,/ x B,/E,/ x | A,/F,/ x A,/F,/ x =B,/F,/ x | %12
 E/_B,/ x[K:treble] B/E/ x e/B/ x |[K:bass] A,/F,/ x A,/F,/ x A,/F,/ x | %14
 B,/E,/ x B,/E,/ x B,/E,/ x | A,/F,/ x =B,/F,/ x _B,/E,/ x | A,/F,/ x[K:treble] A/F/ x a/f/ x | %17
[K:bass] E/C/ x _E/C/ x F/E/ x | _E/B,/ x D/B,/ x D/B,/ x | _D/B,/ x D/B,/ x D/B,/ x | %20
 _D/_A,/ x C/A,/ x C/A,/ x | C/_A,/ x C/A,/ x C/A,/ x | C/G,/ x =B,/G,/ x B,/G,/ x | %23
 C/_A,/ x[K:treble] c/_A/ x c/A/ x | c/G/ x =B/G/ x B/G/ x | =B/^F/ x[K:bass] =B,/^F,/ x ^C/F,/ x | %26
 =B,/^F,/ x ^A,/F,/ x A,/F,/ x | G,/^F,/ x G,/F,/ x G,/F,/ x | G,/^F,/ x G,/F,/ x F,/E,/ x || %29
[K:B] x6 | x6 | x6 | A,/=E,/ x E/A,/ x[K:treble] A/E/ x |[K:bass] x6 | x6 | x6 | x4[K:treble] x2 | %37
[K:bass] x6 | x6 | x6 | x6 | x2 F/C/ x G/C/ x | F/C/ x ^E/C/ x E/C/ x | %43
 F/C/ x[K:treble] f/c/ x g/c/ x | f/c/ x ^e/c/ x e/c/ x ||[K:F] f/c/ x[K:bass] F/C/ x G/C/ x | %46
 F/C/ x E/C/ x E/C/ x | D/C/ x D/C/ x E/C/ x | D/C/ x D/C/ x C/B,/ x | A,/F,/ x A,/F,/ x A,/F,/ x | %50
 B,/E,/ x B,/E,/ x B,/E,/ x | A,/F,/ x A,/F,/ x =B,/F,/ x | E/_B,/ x[K:treble] B/E/ x e/B/ x | %53
[K:bass] A,/F,/ x A,/F,/ x A,/F,/ x | B,/E,/ x B,/E,/ x B,/E,/ x | A,/F,/ x =B,/F,/ x E/_B,/ x | %56
 A,/F,/ x[K:treble] A/F/ x B/E/ x | A/F/ x a/f/ x b/e/ x | a/f/ x A/F/ x B/E/ x | %59
 A/F/ x a/f/ x b/e/ x | a/f/ x a/^d/ x ^g/=d/ x | =g/^c/ x d/_B/ x e/B/ x | %62
 A/F/ x[K:bass] A/^D/ x ^G/=D/ x | =G/^C/ x D/B,/ x E/B,/ x | A,/F,/ x A,/F,/ x B,/E,/ x | %65
 A,/F,/ x A,/F,/ x B,/E,/ x | A,/F,/ x5 | x6 | x6 | x6 | x6 | x6 | x6 |] %73
V:5
 x2 | x6 | x6 | x6 | x4!8va(! x2!8va)! | x6 | x6 | x6 | x2!8va(! x4!8va)! | x3/4 c x F x c x/4 | %10
 x3/4 c x G x c x/4 | x3/4 c x c x g x/4 | x3/4 c x g x/4!8va(! x3/4 g' x/4!8va)! | %13
 x3/4 c x F x c x/4 | x3/4 c x G x c x/4 | x3/4 c x d x c x/4 | %16
 x3/4 c x/4!8va(! x3/4 c' x c'' x/4!8va)! | x6 | x6 | x6 | x6 | x6 | x6 | x6 | x6 | x6 | x6 | x6 | %28
 x6 ||[K:B] x6 | x6 | x6 | x6 | x6 | x6 | x6 | x4!8va(! x2!8va)! | x6 | x6 | x6 | x6 | x6 | x6 | %43
 x2!8va(! x4 | x6!8va)! ||[K:F]!8va(! x2!8va)! x4 | x6 | x6 | x6 | x6 | x6 | x6 | %52
 x4!8va(! x2!8va)! | x6 | x6 | x6 | x6 | x2!8va(! x4 | x2!8va)! x4 | x2!8va(! x4 | x6 | x6 | %62
 x2!8va)! x4 | x6 | x6 | x6 | x6 | x6 | x6 | x4!8va(! x2 | x2!8va)! x4 | x6 | x6 |] %73

